X: 846
T: Alborada De Rendueles
R: reel
M: 4/4
K: Amajor
e2ce a3b|agfg a2e2|e2ce a3b|agfg a4:|
c'2b2a3c'-|c'2b2 a3b|abab a3b|abab a3e|
agfg a3e|agfg e3e|agfg agfe|fgag e3A|
cAce B3G|BGBd c3A|cAce B3G|BGBc A4|
cAeA c3e|cece c3e|cece d3e|defe c3e|
cece c3e|cAeA c3e|cece d3e|defe c3e|
agfg a3e|agfg e3e|agfg agfe|fgag e3A|
cAce B3G|BGBd c3A|cAce B3G|BGBc A4||

